X:1
T:Title
%%score { ( 1 3 ) | 2 }
L:1/8
M:9/8
K:A
V:1 treble nm="Grand Piano"
V:3 treble 
V:2 bass 
V:1
 z3 z3[Q:1/4=100] [CE][DF][CE] | [CA]3 [Ec]2 [Ec] [Ec][EB][EA] | [DF]6 [DF][FA][Fd] | %3
 c3 A2 G [^DB][DA][DF] | E6 EFE | [CA]3 [Ec]2 [Ec] [EA][EB][=Gc] | [Fd]3- [Fd]2 [Fd] [FB][Fc][Fd] | %7
 [Ec]3 [EA]2 [Ec] [DEB][CEA][B,EG] |[M:3/4] [CEA]6 |[M:3/8] z3 |[M:9/8] c3 G3 z3 | A3 F3 z3 | %12
 B-[EB-][EB] [^DF]3 A2- [DA] | G6 EFE | [CA]3[K:bass][K:treble] [Ec]3 z3 | [=Ge]3 [Fd]3 z3 | %16
 [Ec]3 z3 [EB]3 |[M:3/4] [CEA]6 |] %18
V:2
 z3 z3 [A,,A,][A,,A,][A,,A,] | [A,,E,]3 [A,,A,]2 [A,,A,] [A,,A,][B,,G,][C,A,] | %2
 [D,A,]6 [D,A,][D,D][D,A,] | [E,A,E]3 [E,CE]2 [E,B,E] [B,,B,][B,,F,][B,,A,] | %4
 [E,G,]6 [E,G,D][E,G,D][E,G,D] | [A,,A,]3 [A,,A,]2 [A,,A,] [C,A,][B,,G,][A,,A,] | %6
 [D,A,]3- [D,A,]2 [D,A,] [D,B,][C,^A,][B,,B,] | [E,A,]3 [E,C]2 [D,A,] E,E,E, |[M:3/4] A,,6 | %9
[M:3/8][K:treble] ccc |[M:9/8][K:bass] [C,G,][C,G,][C,G,] [C,C]2 [C,C] z3 | %11
 [F,A,C][F,A,][F,A,] [F,A,C]2 [F,A,] z3 | [B,,B,][B,,B,][B,,B,] [B,,B,]3 [B,,B,]2 [B,,B,] | %13
 [E,B,E]6 DDD | [A,,E,]A,,A,, [A,,A,]2 A,,[K:treble] EE=G | %15
 [D,A,]D,D, [D,A,]2 D, D,[C,^A,][B,,B,] | [E,A,]E,E, E,3 E,2 E, |[M:3/4] A,,6 |] %18
V:3
 x9 | x9 | x9 | x9 | x9 | x9 | x9 | x9 |[M:3/4] x6 |[M:3/8] x3 |[M:9/8] ^EEE E2 E cGB | %11
 z CC z2 C BBB | .E3 z3 .^D3 | x9 | z[K:bass] E,E,[K:treble] z2 A, cce | %15
 z A,A, z2 A, [B,FB][Fc][Fd] | z A,A, [CEA]3 D2 D |[M:3/4] x6 |] %18

